X:25
%%annotationfont Times-Roman 14
T:Sprig of Ivy, The 
C:Joe Buchanan's Scottish Tome - Page 334.0
I:334 0
R:Barndance
Z:Carl Allison
L:1/16
M:4/4
K:D
"A7" f2 | "D" AAA>d f2e<d | "D" f>Af<g f2e>d | "D" A>AA<d "Bm" f>Af<a | "Em" g>fe>d "A7" e2{g}f2 |
"D" A>AA>d f2e<d | "Bm" B>GG<d "D" f2e>d | "G" c>Ac<e "A7" c>Ac<e | "D" d4 d<d :|
f>g | "D" a2{A}a2 f>ed>e | "D" f>ed>B A2(f>g) | "D" a2{A}a2 "Bm" f<a(A>a) | "Em7" g>fe>d "A7" e2"@-5,32____""@-6,20| 1"(f<g) |
[1 "D" a2{A}a2 f>ed>e | "Bm" f>ed>B "F#m" A2{c}d2 | "Em7" B>GG>d "A7" A>cc<e | "G" d4 "D" d>d :|
[2 f2 |[2  "D" A>AA>d "G" B<BB<d | "D" A>AA>d f>Af<a | "Em7" B>GG>d "A7" c>Ac<e | "G" d4 "D" dd |]
f2 | "D" A>AA>d f>Ad>A | "D" f>Af<g "Em" e>dB<d | "D" A>AA>d "Bm" f>Af>a | "Em7" g>fe>d "A" e2{g}f2 |
"D" A>AA>d f>Ad>A | f>Af<g e>dB<d | "G" B>GG>d "A7" c>Ac<e | "G" d4 "D" d>d :|
(f>g) | "D" a>AA>d f>ed>e | "D" f>ed>B A2{c}d2 | "D" a>AA>d "Bm" f>Gf<a | "E7" g>fe>d "A7" e2"@-5,32____""@-6,20| 1"f>g |
[1 "D" a>AA>d f>ed>e | "Bm" f>ed>B A2{c}d2 | "Em" B>GG>d "A7" c>Ac<e | "G" d4 "D" d>d :|
[2 f2 |[2  "D" A>AA>d "G" B>BB>d | "D" A>AA>d f>Af<a | "Em7" B>GG>d "A7" c>Ac<e | "G" d4 "D" d>d |]

